storage/app/icons/phosphoricons/fill/text-h-six-fill.svg

<svg xmlns="http://www.w3.org/2000/svg" fill="currentColor" viewBox="0 0 256 256"><path d="M192 152a16 16 0 1 1-16-16 16 16 0 0 1 16 16m32-104v160a16 16 0 0 1-16 16H48a16 16 0 0 1-16-16V48a16 16 0 0 1 16-16h160a16 16 0 0 1 16 16m-96 32a8 8 0 0 0-16 0v32H72V80a8 8 0 0 0-16 0v80a8 8 0 0 0 16 0v-32h40v32a8 8 0 0 0 16 0Zm80 72a32 32 0 0 0-32-32l11.55-20a8 8 0 0 0-13.86-8l-25.4 44-.14.27A32 32 0 1 0 208 152"/></svg>

<svg xmlns="http://www.w3.org/2000/svg" viewBox="0 0 256 256" fill="currentColor"><path d="M192,152a16,16,0,1,1-16-16A16,16,0,0,1,192,152ZM224,48V208a16,16,0,0,1-16,16H48a16,16,0,0,1-16-16V48A16,16,0,0,1,48,32H208A16,16,0,0,1,224,48ZM128,80a8,8,0,0,0-16,0v32H72V80a8,8,0,0,0-16,0v80a8,8,0,0,0,16,0V128h40v32a8,8,0,0,0,16,0Zm80,72a32,32,0,0,0-32-32l11.55-20a8,8,0,0,0-13.86-8l-25.4,44-.14.27A32,32,0,1,0,208,152Z"/></svg>
